src/assests/logoipsum-light.svg

<svg id="logo-87" width="202" height="40" viewBox="0 0 202 40" fill="none" xmlns="http://www.w3.org/2000/svg"><path class="ccustom" fill-rule="evenodd" clip-rule="evenodd" d="M25.5557 11.6853C23.9112 10.5865 21.9778 10 20 10V0C23.9556 0 27.8224 1.17298 31.1114 3.37061C34.4004 5.56823 36.9638 8.69181 38.4776 12.3463C39.9913 16.0008 40.3874 20.0222 39.6157 23.9018C38.844 27.7814 36.9392 31.3451 34.1421 34.1421C31.3451 36.9392 27.7814 38.844 23.9018 39.6157C20.0222 40.3874 16.0008 39.9913 12.3463 38.4776C8.6918 36.9638 5.56823 34.4004 3.37061 31.1114C1.17298 27.8224 0 23.9556 0 20H10C10 21.9778 10.5865 23.9112 11.6853 25.5557C12.7841 27.2002 14.3459 28.4819 16.1732 29.2388C18.0004 29.9957 20.0111 30.1937 21.9509 29.8078C23.8907 29.422 25.6725 28.4696 27.0711 27.0711C28.4696 25.6725 29.422 23.8907 29.8078 21.9509C30.1937 20.0111 29.9957 18.0004 29.2388 16.1732C28.4819 14.3459 27.2002 12.7841 25.5557 11.6853Z" fill="#007DFC"></path><path class="ccustom" fill-rule="evenodd" clip-rule="evenodd" d="M10 1.47023e-06C10 1.31322 9.74135 2.61358 9.2388 3.82684C8.73625 5.04009 7.99966 6.14248 7.07107 7.07107C6.14249 7.99966 5.0401 8.73625 3.82684 9.2388C2.61358 9.74134 1.31322 10 6.15916e-06 10L5.72205e-06 20C2.62644 20 5.22716 19.4827 7.65368 18.4776C10.0802 17.4725 12.285 15.9993 14.1421 14.1421C15.9993 12.285 17.4725 10.0802 18.4776 7.65367C19.4827 5.22715 20 2.62643 20 -3.8147e-06L10 1.47023e-06Z" fill="#007DFC"></path><path class="ccustom" d="M125.619 14.4525H120.767V29.8648H125.619V14.4525Z" fill="#007DFC"></path><path class="ccustom" d="M121.307 11.5666C121.814 12.074 122.448 12.3277 123.209 12.3277C123.97 12.3277 124.594 12.074 125.08 11.5666C125.567 11.0381 125.81 10.4038 125.81 9.66385C125.81 8.90277 125.567 8.26849 125.08 7.76111C124.594 7.25369 123.97 7 123.209 7C122.448 7 121.814 7.25369 121.307 7.76111C120.82 8.26849 120.577 8.90277 120.577 9.66385C120.577 10.4038 120.82 11.0381 121.307 11.5666Z" fill="#007DFC"></path><path class="ccustom" d="M51.1562 29.8648V7.47568H56.1351V25.4885H66.0612V29.8648H51.1562Z" fill="#007DFC"></path><path class="ccustom" fill-rule="evenodd" clip-rule="evenodd" d="M75.0274 30.2136C73.4418 30.2136 72.0042 29.8648 70.7145 29.1671C69.446 28.4483 68.4418 27.4758 67.7018 26.2495C66.9619 25.0233 66.5919 23.6491 66.5919 22.1269C66.5919 20.6047 66.9619 19.2411 67.7018 18.036C68.4418 16.8309 69.446 15.8795 70.7145 15.1819C71.983 14.463 73.4207 14.1036 75.0274 14.1036C76.6342 14.1036 78.0718 14.4525 79.3403 15.1501C80.6088 15.8478 81.6131 16.8098 82.353 18.036C83.093 19.2411 83.463 20.6047 83.463 22.1269C83.463 23.6491 83.093 25.0233 82.353 26.2495C81.6131 27.4758 80.6088 28.4483 79.3403 29.1671C78.0718 29.8648 76.6342 30.2136 75.0274 30.2136ZM75.0274 25.8056C75.7251 25.8056 76.3382 25.6576 76.8668 25.3616C77.3953 25.0445 77.797 24.6111 78.0718 24.0614C78.3678 23.4906 78.5158 22.8457 78.5158 22.1269C78.5158 21.4081 78.3678 20.7844 78.0718 20.2559C77.7758 19.7062 77.3636 19.2834 76.835 18.9874C76.3276 18.6702 75.7251 18.5117 75.0274 18.5117C74.3509 18.5117 73.7484 18.6702 73.2198 18.9874C72.6913 19.2834 72.279 19.7062 71.983 20.2559C71.687 20.8056 71.5391 21.4398 71.5391 22.1586C71.5391 22.8563 71.687 23.4906 71.983 24.0614C72.279 24.6111 72.6913 25.0445 73.2198 25.3616C73.7484 25.6576 74.3509 25.8056 75.0274 25.8056Z" fill="#007DFC"></path><path class="ccustom" fill-rule="evenodd" clip-rule="evenodd" d="M87.3057 35.8902C88.5953 36.4821 90.0858 36.7781 91.7772 36.7781C93.4262 36.7781 94.8956 36.4504 96.1852 35.795C97.4749 35.1396 98.4896 34.2306 99.2296 33.0678C99.9695 31.905 100.34 30.5308 100.34 28.9451V14.4525H95.5826V15.488C95.2288 15.1902 94.827 14.9402 94.3776 14.7379C93.553 14.3362 92.6122 14.1353 91.5552 14.1353C90.1387 14.1353 88.8807 14.4736 87.7814 15.1501C86.6819 15.8055 85.8152 16.7146 85.1809 17.8774C84.5466 19.0191 84.2296 20.3087 84.2296 21.7464C84.2296 23.1629 84.5466 24.4525 85.1809 25.6153C85.8152 26.7781 86.6819 27.6978 87.7814 28.3743C88.8807 29.0508 90.1387 29.3891 91.5552 29.3891C92.5911 29.3891 93.5319 29.1883 94.3776 28.7866C94.7872 28.592 95.1572 28.3627 95.4875 28.0986V29.072C95.4875 30.1502 95.1387 30.9853 94.441 31.5773C93.7645 32.1693 92.8237 32.4652 91.6186 32.4652C90.6461 32.4652 89.811 32.2961 89.1133 31.9578C88.4368 31.6196 87.8236 31.1227 87.2739 30.4673L84.293 33.4483C85.0329 34.5054 86.0372 35.3194 87.3057 35.8902ZM94.219 24.6322C93.7327 24.9282 93.1514 25.0762 92.4748 25.0762C91.7983 25.0762 91.2063 24.9282 90.6989 24.6322C90.2126 24.3362 89.8321 23.9345 89.5573 23.4271C89.2824 22.8986 89.145 22.3383 89.145 21.7464C89.145 21.1121 89.2824 20.5413 89.5573 20.0339C89.8321 19.5265 90.2232 19.1248 90.7306 18.8288C91.238 18.5328 91.8194 18.3848 92.4748 18.3848C93.1514 18.3848 93.7327 18.5328 94.219 18.8288C94.7264 19.1248 95.1069 19.5265 95.3607 20.0339C95.6355 20.5413 95.7729 21.1121 95.7729 21.7464C95.7729 22.3806 95.6355 22.9514 95.3607 23.4588C95.1069 23.9451 94.7264 24.3362 94.219 24.6322Z" fill="#007DFC"></path><path class="ccustom" fill-rule="evenodd" clip-rule="evenodd" d="M110.551 30.2136C108.965 30.2136 107.527 29.8648 106.238 29.1671C104.969 28.4483 103.965 27.4758 103.225 26.2495C102.485 25.0233 102.115 23.6491 102.115 22.1269C102.115 20.6047 102.485 19.2411 103.225 18.036C103.965 16.8309 104.969 15.8795 106.238 15.1819C107.506 14.463 108.944 14.1036 110.551 14.1036C112.157 14.1036 113.595 14.4525 114.863 15.1501C116.132 15.8478 117.136 16.8098 117.876 18.036C118.616 19.2411 118.986 20.6047 118.986 22.1269C118.986 23.6491 118.616 25.0233 117.876 26.2495C117.136 27.4758 116.132 28.4483 114.863 29.1671C113.595 29.8648 112.157 30.2136 110.551 30.2136ZM110.551 25.8056C111.248 25.8056 111.861 25.6576 112.39 25.3616C112.918 25.0445 113.32 24.6111 113.595 24.0614C113.891 23.4906 114.039 22.8457 114.039 22.1269C114.039 21.4081 113.891 20.7844 113.595 20.2559C113.299 19.7062 112.887 19.2834 112.358 18.9874C111.851 18.6702 111.248 18.5117 110.551 18.5117C109.874 18.5117 109.271 18.6702 108.743 18.9874C108.214 19.2834 107.802 19.7062 107.506 20.2559C107.21 20.8056 107.062 21.4398 107.062 22.1586C107.062 22.8563 107.21 23.4906 107.506 24.0614C107.802 24.6111 108.214 25.0445 108.743 25.3616C109.271 25.6576 109.874 25.8056 110.551 25.8056Z" fill="#007DFC"></path><path class="ccustom" fill-rule="evenodd" clip-rule="evenodd" d="M137.281 30.1819C136.246 30.1819 135.294 29.9811 134.427 29.5794C133.971 29.368 133.559 29.1156 133.191 28.8222V36.3659H128.402V14.4525H133.254V15.5162C133.606 15.2283 133.997 14.9794 134.427 14.7696C135.294 14.3467 136.246 14.1353 137.281 14.1353C138.74 14.1353 140.03 14.4842 141.15 15.1819C142.292 15.8795 143.18 16.8309 143.814 18.036C144.47 19.2411 144.797 20.6153 144.797 22.1586C144.797 23.702 144.47 25.0762 143.814 26.2813C143.18 27.4864 142.292 28.4377 141.15 29.1354C140.03 29.8331 138.74 30.1819 137.281 30.1819ZM136.394 25.8056C137.091 25.8056 137.694 25.647 138.201 25.3299C138.73 25.0128 139.142 24.5793 139.438 24.0297C139.734 23.48 139.882 22.8563 139.882 22.1586C139.882 21.4398 139.734 20.8056 139.438 20.2559C139.142 19.7062 138.73 19.2834 138.201 18.9874C137.694 18.6702 137.102 18.5117 136.425 18.5117C135.749 18.5117 135.146 18.6702 134.618 18.9874C134.11 19.2834 133.709 19.7062 133.413 20.2559C133.117 20.8056 132.969 21.4398 132.969 22.1586C132.969 22.8563 133.106 23.48 133.381 24.0297C133.677 24.5793 134.089 25.0128 134.618 25.3299C135.146 25.647 135.738 25.8056 136.394 25.8056Z" fill="#007DFC"></path><path class="ccustom" d="M149.546 29.8965C150.434 30.1291 151.332 30.2453 152.241 30.2453C154.165 30.2453 155.687 29.8014 156.808 28.9134C157.949 28.0255 158.52 26.831 158.52 25.3299C158.52 24.3574 158.341 23.5751 157.981 22.9832C157.622 22.3701 157.157 21.8838 156.586 21.5244C156.015 21.165 155.412 20.8795 154.778 20.6681C154.144 20.4567 153.541 20.277 152.971 20.129C152.4 19.981 151.935 19.8119 151.575 19.6216C151.216 19.4313 151.036 19.1776 151.036 18.8605C151.036 18.5645 151.174 18.3425 151.448 18.1945C151.723 18.0254 152.135 17.9409 152.685 17.9409C153.256 17.9409 153.837 18.0571 154.429 18.2897C155.042 18.5222 155.592 18.924 156.078 19.4948L158.837 16.7041C158.14 15.8161 157.231 15.1501 156.11 14.7062C155.011 14.2411 153.806 14.0085 152.495 14.0085C151.248 14.0085 150.159 14.2199 149.229 14.6427C148.298 15.0656 147.579 15.647 147.072 16.3869C146.565 17.1057 146.311 17.962 146.311 18.9557C146.311 19.8859 146.491 20.6576 146.85 21.2707C147.209 21.8626 147.675 22.3278 148.245 22.666C148.816 23.0043 149.419 23.2686 150.053 23.4588C150.687 23.6491 151.29 23.8288 151.861 23.998C152.431 24.146 152.897 24.3257 153.256 24.5371C153.637 24.7274 153.827 25.0128 153.827 25.3933C153.827 25.6893 153.668 25.9218 153.351 26.091C153.055 26.2601 152.622 26.3447 152.051 26.3447C151.226 26.3447 150.465 26.1967 149.768 25.9007C149.07 25.5836 148.467 25.1502 147.96 24.6005L145.201 27.3912C145.73 27.962 146.364 28.4695 147.104 28.9134C147.865 29.3362 148.679 29.6639 149.546 29.8965Z" fill="#007DFC"></path><path class="ccustom" d="M167.368 30.2136C165.952 30.2136 164.694 29.9282 163.595 29.3574C162.516 28.7654 161.671 27.962 161.058 26.9472C160.444 25.9113 160.138 24.7274 160.138 23.3954V14.4525H164.99V23.332C164.99 23.8605 165.074 24.3151 165.244 24.6956C165.434 25.0762 165.709 25.3722 166.068 25.5836C166.428 25.795 166.861 25.9007 167.368 25.9007C168.087 25.9007 168.658 25.6787 169.081 25.2347C169.504 24.7696 169.715 24.1354 169.715 23.332V14.4525H174.567V23.3637C174.567 24.7168 174.261 25.9113 173.647 26.9472C173.034 27.962 172.189 28.7654 171.11 29.3574C170.032 29.9282 168.785 30.2136 167.368 30.2136Z" fill="#007DFC"></path><path class="ccustom" d="M181.831 14.4525H176.979V29.8648H181.831V20.8584C181.831 20.3299 181.937 19.8859 182.148 19.5265C182.381 19.1671 182.688 18.8922 183.068 18.702C183.449 18.4905 183.882 18.3848 184.368 18.3848C185.066 18.3848 185.647 18.6068 186.112 19.0508C186.599 19.4736 186.842 20.0762 186.842 20.8584V29.8648H191.694V20.8584C191.694 20.3299 191.8 19.8859 192.011 19.5265C192.244 19.1671 192.55 18.8922 192.931 18.702C193.311 18.4905 193.745 18.3848 194.231 18.3848C194.929 18.3848 195.51 18.6068 195.975 19.0508C196.461 19.4736 196.704 20.0762 196.704 20.8584V29.8648H201.557V20.3193C201.557 19.0297 201.282 17.9303 200.732 17.0212C200.203 16.0909 199.474 15.3827 198.544 14.8965C197.635 14.389 196.588 14.1353 195.404 14.1353C194.199 14.1353 193.11 14.3996 192.138 14.9282C191.506 15.2649 190.954 15.6995 190.481 16.2319C190.04 15.675 189.504 15.2193 188.871 14.8647C188.026 14.3785 187.064 14.1353 185.986 14.1353C184.844 14.1353 183.819 14.3785 182.91 14.8647C182.514 15.067 182.155 15.3093 181.831 15.5916V14.4525Z" fill="#007DFC"></path></svg>

<svg xmlns="http://www.w3.org/2000/svg" width="202" height="40" fill="none"><path fill="#007DFC" fill-rule="evenodd" d="M25.556 11.685A10 10 0 0 0 20 10V0A20 20 0 1 1 0 20h10a10 10 0 1 0 15.556-8.315" class="ccustom" clip-rule="evenodd"/><path fill="#007DFC" fill-rule="evenodd" d="M10 0A10 10 0 0 1 0 10v10A20 20 0 0 0 20 0z" class="ccustom" clip-rule="evenodd"/><path fill="#007DFC" d="M125.619 14.453h-4.852v15.412h4.852zM121.307 11.567q.76.76 1.902.76t1.871-.76q.73-.793.73-1.903 0-1.142-.73-1.903-.73-.76-1.871-.761-1.141 0-1.902.761-.73.761-.73 1.903 0 1.11.73 1.903M51.156 29.865V7.475h4.98V25.49h9.925v4.376z" class="ccustom"/><path fill="#007DFC" fill-rule="evenodd" d="M75.027 30.214q-2.378 0-4.312-1.047a8.14 8.14 0 0 1-3.013-2.918q-1.11-1.839-1.11-4.122t1.11-4.091a8 8 0 0 1 3.013-2.854q1.903-1.078 4.312-1.078t4.313 1.046a7.9 7.9 0 0 1 3.013 2.886q1.11 1.808 1.11 4.09 0 2.284-1.11 4.124a8.14 8.14 0 0 1-3.013 2.917q-1.902 1.047-4.313 1.047m0-4.408q1.047 0 1.84-.444.792-.475 1.205-1.3.444-.857.444-1.935t-.444-1.871a3.1 3.1 0 0 0-1.237-1.269q-.76-.475-1.808-.475-1.014 0-1.807.475a3.1 3.1 0 0 0-1.237 1.269q-.444.825-.444 1.903 0 1.046.444 1.902.444.825 1.237 1.3.792.445 1.807.445M87.306 35.89q1.935.888 4.471.888 2.475 0 4.408-.983 1.935-.983 3.045-2.727t1.11-4.123V14.453h-4.757v1.035a5.1 5.1 0 0 0-1.205-.75q-1.238-.603-2.823-.603-2.124 0-3.774 1.015-1.65.984-2.6 2.727-.951 1.713-.951 3.87 0 2.124.95 3.868a7.26 7.26 0 0 0 2.601 2.76q1.65 1.014 3.774 1.014 1.554 0 2.823-.602.615-.292 1.11-.688v.973q0 1.617-1.047 2.505-1.015.888-2.822.888-1.46 0-2.506-.507-1.015-.507-1.84-1.49l-2.98 2.98q1.11 1.586 3.013 2.442m6.913-11.258q-.73.444-1.744.444-1.016 0-1.776-.444a3.13 3.13 0 0 1-1.142-1.205 3.6 3.6 0 0 1-.412-1.68q0-.953.412-1.713a3.06 3.06 0 0 1 1.174-1.205q.76-.444 1.744-.444 1.014 0 1.744.444a2.85 2.85 0 0 1 1.142 1.205q.412.76.412 1.712t-.412 1.713a2.9 2.9 0 0 1-1.142 1.173M110.551 30.214q-2.38 0-4.313-1.047a8.14 8.14 0 0 1-3.013-2.918q-1.11-1.839-1.11-4.122t1.11-4.091a8 8 0 0 1 3.013-2.854q1.902-1.078 4.313-1.078t4.312 1.046a7.9 7.9 0 0 1 3.013 2.886q1.11 1.808 1.11 4.09 0 2.284-1.11 4.124a8.14 8.14 0 0 1-3.013 2.917q-1.903 1.047-4.312 1.047m0-4.408q1.046 0 1.839-.444.792-.475 1.205-1.3.444-.857.444-1.935t-.444-1.871a3.1 3.1 0 0 0-1.237-1.269q-.761-.475-1.807-.475-1.016 0-1.808.475a3.1 3.1 0 0 0-1.237 1.269q-.444.825-.444 1.903 0 1.046.444 1.902.444.825 1.237 1.3.792.445 1.808.445M137.281 30.182q-1.553 0-2.854-.603a6 6 0 0 1-1.236-.757v7.544h-4.789V14.453h4.852v1.063a6 6 0 0 1 1.173-.746q1.301-.635 2.854-.635 2.189 0 3.869 1.047a7.2 7.2 0 0 1 2.664 2.854q.983 1.808.983 4.123 0 2.314-.983 4.122a7.2 7.2 0 0 1-2.664 2.854q-1.68 1.047-3.869 1.047m-.887-4.376q1.046 0 1.807-.476.793-.475 1.237-1.3t.444-1.871q0-1.079-.444-1.903a3.1 3.1 0 0 0-1.237-1.269q-.76-.475-1.776-.475-1.014 0-1.807.475a3.17 3.17 0 0 0-1.205 1.269q-.444.825-.444 1.903 0 1.046.412 1.87.444.825 1.237 1.3.792.477 1.776.477" class="ccustom" clip-rule="evenodd"/><path fill="#007DFC" d="M149.546 29.897q1.332.348 2.695.348 2.886 0 4.567-1.332 1.712-1.331 1.712-3.583 0-1.46-.539-2.347a4.2 4.2 0 0 0-1.395-1.459 8.3 8.3 0 0 0-1.808-.856 28 28 0 0 0-1.807-.539q-.856-.222-1.396-.507t-.539-.762q0-.444.412-.665.412-.255 1.237-.254.856 0 1.744.349.92.348 1.649 1.205l2.759-2.79q-1.046-1.333-2.727-1.999-1.649-.697-3.615-.697-1.87-.001-3.266.634-1.397.634-2.157 1.744-.76 1.078-.761 2.569 0 1.395.539 2.315a4 4 0 0 0 1.395 1.395 8 8 0 0 0 1.808.793q.951.285 1.808.539.856.222 1.395.54.571.285.571.855 0 .444-.476.698-.444.255-1.3.254a5.8 5.8 0 0 1-2.283-.444 5.6 5.6 0 0 1-1.808-1.3l-2.759 2.79a8.6 8.6 0 0 0 1.903 1.522q1.141.634 2.442.983M167.368 30.214q-2.124 0-3.773-.857a6.6 6.6 0 0 1-2.537-2.41q-.92-1.554-.92-3.552v-8.942h4.852v8.879q0 .792.254 1.364.285.57.824.888.54.317 1.3.317 1.078 0 1.713-.666.634-.698.634-1.903v-8.88h4.852v8.912q0 2.03-.92 3.583a6.6 6.6 0 0 1-2.537 2.41q-1.617.857-3.742.857M181.831 14.453h-4.852v15.412h4.852v-9.007q0-.792.317-1.332.35-.539.92-.824a2.63 2.63 0 0 1 1.3-.317q1.047 0 1.744.666.73.634.73 1.807v9.007h4.852v-9.007q0-.792.317-1.332.349-.539.92-.824a2.63 2.63 0 0 1 1.3-.317q1.047 0 1.744.666.729.634.729 1.807v9.007h4.853v-9.546q0-1.935-.825-3.298a5.3 5.3 0 0 0-2.188-2.125q-1.364-.76-3.14-.76-1.808 0-3.266.792a5.9 5.9 0 0 0-1.657 1.304 5.4 5.4 0 0 0-1.61-1.367q-1.268-.73-2.885-.73-1.713 0-3.076.73a5.3 5.3 0 0 0-1.079.727z" class="ccustom"/></svg>
